icons/package/package-open.svg

<svg width="14" height="14" viewBox="0 0 14 14" fill="none" xmlns="http://www.w3.org/2000/svg">
<path d="M7 7.43301L11 5.12361M7 7.43301L3 5.12361M7 7.43301V12.0518M7 7.43301L8.5 8.29903L11 6.85566M7 7.43301L5.5 8.29904L3 6.85566M7 12.0518L3 9.74241V6.85566M7 12.0518L11 9.74241V6.85566M11 5.12361L7 2.81421M11 5.12361L12.5 5.98963L11 6.85566M11 5.12361L12.5 4.25758L8.5 1.94818L7 2.81421M3 5.12361L7 2.81421M3 5.12361L1.5 4.25758L5.5 1.94818L7 2.81421M3 5.12361L1.5 5.98963L3 6.85566" stroke="red" stroke-linecap="round" stroke-linejoin="round"/>
</svg>

<svg xmlns="http://www.w3.org/2000/svg" width="14" height="14" fill="none" viewBox="0 0 14 14"><path stroke="red" stroke-linecap="round" stroke-linejoin="round" d="m7 7.433 4-2.31m-4 2.31-4-2.31m4 2.31v4.619m0-4.619 1.5.866L11 6.856m-4 .577-1.5.866L3 6.856m4 5.196-4-2.31V6.856m4 5.196 4-2.31V6.856m0-1.732-4-2.31m4 2.31 1.5.866-1.5.866m0-1.732 1.5-.866-4-2.31-1.5.866m-4 2.31 4-2.31m-4 2.31-1.5-.866 4-2.31 1.5.866m-4 2.31-1.5.866 1.5.866"/></svg>
